src/extras-unicode/symbol-other/2B8F.svg

<svg id="emoji" viewBox="0 0 72 72" xmlns="http://www.w3.org/2000/svg">
  <g id="grid">
    <path fill="#b3b3b3" d="M68,4V68H4V4H68m4-4H0V72H72V0Z"/>
    <path fill="none" stroke="#00a5ff" stroke-miterlimit="10" stroke-width="0.1" d="M12.923,10.9583H59.0769A1.9231,1.9231,0,0,1,61,12.8814V59.0352a1.9231,1.9231,0,0,1-1.9231,1.9231H12.9231A1.9231,1.9231,0,0,1,11,59.0352V12.8813A1.923,1.923,0,0,1,12.923,10.9583Z"/>
    <rect x="16" y="4" rx="2.2537" ry="2.2537" width="40" height="64" fill="none" stroke="#00a5ff" stroke-miterlimit="10" stroke-width="0.1"/>
    <rect x="16" y="4" rx="2.2537" ry="2.2537" width="40" height="64" transform="translate(72) rotate(90)" fill="none" stroke="#00a5ff" stroke-miterlimit="10" stroke-width="0.1"/>
    <circle cx="36" cy="36" r="29" fill="none" stroke="#00a5ff" stroke-miterlimit="10" stroke-width="0.1"/>
  </g>
  <g id="color">
    <path fill="#3f3f3f" d="M50.1655,50.5238l9.6-10.4,4.1,3.8-16.5,17.8-16.5-17.8,4.1-3.8,9.6,9.9806L44.5621,35.41c0-9.8053-3.9989-15.24-14.522-15.24C19.3324,20.17,15.83,26.9312,15.83,35.41V58.209H10.45V35.38c0-12.4,6.3149-20.59,19.59-20.59,13.5,0,20.1253,8.09,20.1253,20.59Z"/>
  </g>
  <g id="line">
    <path fill="none" stroke="#000" stroke-linecap="round" stroke-linejoin="round" stroke-width="2" d="M50.1655,50.5238l9.6-10.4,4.1,3.8-16.5,17.8-16.5-17.8,4.1-3.8,9.6,9.9806L44.5621,35.41c0-9.8053-3.9989-15.24-14.522-15.24C19.3324,20.17,15.83,26.9312,15.83,35.41V58.209H10.45V35.38c0-12.4,6.3149-20.59,19.59-20.59,13.5,0,20.1253,8.09,20.1253,20.59Z"/>
  </g>
</svg>

<svg viewBox="0 0 72 72" xmlns="http://www.w3.org/2000/svg"><path fill="#b3b3b3" d="M68 4v64H4V4h64m4-4H0v72h72V0z"/><path fill="none" stroke="#00a5ff" stroke-miterlimit="10" stroke-width=".1" d="M12.923 10.958h46.154A1.923 1.923 0 0161 12.881v46.154a1.923 1.923 0 01-1.923 1.923H12.923A1.923 1.923 0 0111 59.035V12.881a1.923 1.923 0 011.923-1.923z"/><rect x="16" y="4" rx="2.254" ry="2.254" width="40" height="64" fill="none" stroke="#00a5ff" stroke-miterlimit="10" stroke-width=".1"/><rect x="16" y="4" rx="2.254" ry="2.254" width="40" height="64" transform="rotate(90 36 36)" fill="none" stroke="#00a5ff" stroke-miterlimit="10" stroke-width=".1"/><circle cx="36" cy="36" r="29" fill="none" stroke="#00a5ff" stroke-miterlimit="10" stroke-width=".1"/><path d="M50.166 50.524l9.6-10.4 4.1 3.8-16.5 17.8-16.5-17.8 4.1-3.8 9.6 9.98-.004-14.694c0-9.805-3.999-15.24-14.522-15.24-10.708 0-14.21 6.761-14.21 15.24v22.799h-5.38V35.38c0-12.4 6.315-20.59 19.59-20.59 13.5 0 20.125 8.09 20.125 20.59z" stroke-linecap="round" stroke-miterlimit="10" stroke-width="6" stroke="#fff" fill="none" stroke-linejoin="round"/><path fill="#3f3f3f" d="M50.166 50.524l9.6-10.4 4.1 3.8-16.5 17.8-16.5-17.8 4.1-3.8 9.6 9.98-.004-14.694c0-9.805-3.999-15.24-14.522-15.24-10.708 0-14.21 6.761-14.21 15.24v22.799h-5.38V35.38c0-12.4 6.315-20.59 19.59-20.59 13.5 0 20.125 8.09 20.125 20.59z"/><path fill="none" stroke="#000" stroke-linecap="round" stroke-linejoin="round" stroke-width="2" d="M50.166 50.524l9.6-10.4 4.1 3.8-16.5 17.8-16.5-17.8 4.1-3.8 9.6 9.98-.004-14.694c0-9.805-3.999-15.24-14.522-15.24-10.708 0-14.21 6.761-14.21 15.24v22.799h-5.38V35.38c0-12.4 6.315-20.59 19.59-20.59 13.5 0 20.125 8.09 20.125 20.59z"/></svg>
